src/renderer/assets/icon/browsingrestore-default-icon.svg

<?xml version="1.0" encoding="UTF-8"?>
<svg width="30px" height="30px" viewBox="0 0 30 30" version="1.1" xmlns="http://www.w3.org/2000/svg" xmlns:xlink="http://www.w3.org/1999/xlink">
    <!-- Generator: Sketch 57.1 (83088) - https://sketch.com -->
    <desc>Created with Sketch.</desc>
    <g id="menuBar/__icon/--restore" stroke="none" stroke-width="1" fill="none" fill-rule="evenodd">
        <path d="M9.05,21.75 C8.6081722,21.75 8.25,21.3918278 8.25,20.95 L8.25,12.05 C8.25,11.6081722 8.6081722,11.25 9.05,11.25 L17.949,11.25 L17.95,11.25 C18.3918278,11.25 18.75,11.6081722 18.75,12.05 L18.75,20.95 L18.75,20.95 C18.75,21.357841 18.4448119,21.6944016 18.0503503,21.7437669 L17.95,21.75 L17.95,21.75 L9.05,21.75 Z M17.149,20.15 L17.149,12.85 L9.85,12.85 L9.85,20.15 L17.149,20.15 Z" id="形状结合" fill="#7E808F" fill-rule="nonzero"></path>
        <path d="M18.3289368,18.75 C17.887109,18.75 17.5289368,18.3918278 17.5289368,17.95 C17.5289368,17.5081722 17.887109,17.15 18.3289368,17.15 L20.149,17.15 L20.149,9.85 L12.85,9.85 L12.85,11.9346238 C12.85,12.3764516 12.4918278,12.7346238 12.05,12.7346238 C11.6081722,12.7346238 11.25,12.3764516 11.25,11.9346238 L11.25,9.05 C11.25,8.6081722 11.6081722,8.25 12.05,8.25 L20.949,8.25 L20.95,8.25 C21.3918278,8.25 21.75,8.6081722 21.75,9.05 L21.75,17.95 L21.75,17.95 C21.75,18.357841 21.4448119,18.6944016 21.0503503,18.7437669 L20.95,18.75 L20.95,18.75 L18.3289368,18.75 Z" id="形状结合" fill="#7E808F" fill-rule="nonzero"></path>
    </g>
</svg>

<svg width="30" height="30" xmlns="http://www.w3.org/2000/svg">
    <g fill="#7E808F">
        <path d="M9.05 21.75a.8.8 0 01-.8-.8v-8.9a.8.8 0 01.8-.8h8.9a.8.8 0 01.8.8v8.9a.8.8 0 01-.7.794l-.1.006h-8.9zm8.099-1.6v-7.3H9.85v7.3h7.299z"/>
        <path d="M18.329 18.75a.8.8 0 110-1.6h1.82v-7.3H12.85v2.085a.8.8 0 11-1.6 0V9.05a.8.8 0 01.8-.8h8.9a.8.8 0 01.8.8v8.9a.8.8 0 01-.7.794l-.1.006h-2.621z"/>
    </g>
</svg>
